X:1
T:Fantasy in D
T:Fantasy in D minor
T:K397
T:Mozart
C:Mozart
%%score { ( 1 4 ) | ( 2 3 ) }
L:1/8
Q:1/4=92
M:4/4
K:F
V:1 treble nm="Piano" snm="Pno."
V:4 treble 
V:2 bass 
V:3 bass 
V:1
"^Andante" z2 (3z (F,A, (3DA,F (3DA,F,) | z2 (3z (F,A, (3DA,F (3DA,F,) | %2
 z2 (3z (G,B, (3EB,G (3EB,G,) | z2 (3z (G,B, (3EB,G (3EB,G,) | z2 (3z (A,D (3^FDA (3FDA,) | %5
 z2 (3z (A,D (3^FDA (3FDA,) | z2 (3(DAG G2) (3(EG(=F | F2)) (3(B,F(_E E2)) (3(=B,=ED) | %8
 z2 (3z ((^CE!<(! (3A^ce (3a^c'e'!<)! |!>(! (3^d'e'=b (3^c'^ga!>)! (3^de=B (3^c^GA)) | %10
 !fermata!z8 ||[Q:1/4=71]"^Adagio"!p! (f7/2 e/4f/4 g)fed | ^c2 z z/ .d/ (^de) z2 | %13
 (g7/2 ^f/4g/4 a)g=fe | d2 z z/ .e/ gf z2 |!f! (a4 b) z z2 |!p! (a>d' .^c'.=c' .=b._b) z z/ .a/ | %17
 (a^g) z =g z ^f z [d=f] | z [^ce][ea][ac'] [c'e'] z z2 |!f! EEEE EE[=CE]E | %20
 [=B,E]E[_B,E]E ([A,E]^D)[DA]A |!>(! (A3 ^G/4A/4=B/4A/4 G2)!>)! z z/!p! .G/ | %22
 (A/^G/)z/.B/ (=A/G/)z/.B/ (A/G/)z/.B/ .=d/z/.G/ z/ | %23
 (B/A/)z/.c/ (B/A/)z/.c/ (B/A/)z/.c/ z/ .e/z/.c/ | %24
 (c/=B/)z/.d/ (c/_B/)z/.d/ (c/B/)z/.d/ z/ .f/z/.B/ | %25
 (d/c/)z/.a/"_cresc." z/ .^g/z/.=g/ z/ .f/z/.f/!f! z/!p! .^d/z/.=d/ | %26
 (c/e/)z/.a/"_cresc.\n" z/ .^g/z/.=g/ z/ .f/z/.e/!f! z/ .^d/z/.=d/ | !fermata!z8 | %28
!p! (c7/2 B/4c/4 d)cBA | ^G2 z z/ A/ (AB) z2 | (f7/2 e/4f/4 g)fed | ^c2 z z/ .d/ (^de) z z/ f/ | %32
"_cresc." ^fg z z/ .a/!f! =c'b z2 |[Q:1/4=187]"^Presto" z/ a/=c'/b/a/g/=f/e/ d/^c/e/A/=c/B/B/A/ | %34
 (G/F/E/D/C/E/ z4 z | z4 z2 z/ =C/_E/^F/ | A/=c/_e/^f/ a/=c'/_e'/) z4 !fermata!z/ | %37
!f![Q:1/4=92]"^Andante" DDDD (DD)[B,D]D | [A,D]D[_A,D]D ([G,D]^C)[CG]G | %39
!>(! (G3 F/8F/8A/8G/8 F2) z!>)! z/!p! A | (G/^F/)z/.A/ (G/F/)z/.A/ (G/F/)z/.A/ z/ .=c/z/.F/ | %41
 (A/G/)z/.B/ (A/G/)z/.B/ (A/G/)z/.B/ z/ .d/z/.G/ | %42
 (B/A/)z/.c/ (B/A/)z/.c/ (B/A/)z/.c/ z/ ._e/z/.A/ | %43
 (c/B/)z/.g/ z/"_cresc." .^f/z/.=f/ z/ ._e/z/.d/!f! z/ .^c/!p!z/.=c/ | %44
 (B/d/)z/.g/ z/"_cresc." .^f/z/.=f/ (d/e/)z/!f!.e/ (g/f/)z/.^f/ | %45
 (a/g/)z/.a/ (c'/b/)z/.=b/ (d'/^c'/)z/.d'/ (f'!fermata!e') | %46
[Q:1/4=187]"^Presto" z/ (^d'/e'/=d'/ ^c'/=b/a/^g/ _b/a/=c'/b/a/=g/f/e/ | %47
d/c/=B/A/G/ _B/A/=c/B/A/G/F/E/D/^C/ z/ | z8 | z8 | %50
 z4 z =C/4^C/4D/4_E/4 =E/4=F/4^F/4=G/4^G/4A/4B/4=B/4 | ^c/4=c/4^d/4=d/4e/4) z6 z3/4 | %52
[Q:1/4=92]"^Andante"!p! (f7/2 e/4f/4 g)fed | ^c2 z z/ .d/ (^de) z2 | (g7/2 ^f/4g/4 a)g=fe | %55
 =d2 z z/ .e/ (gf) z2 |!f! (([Aa]4 [Bb])) z z2 |!p! (a>d' .^c'.=c' .=b2) z z/ .a/ | %58
 (ag) z z/ .g/ (e'g) z z/ .g/ | (ef) z z/ .f/ ((e2 !invertedturn!e>)f) | %60
 g>a b!f! z ((^G,/4=B,/4D/4F/4^G/4=B/4d/4f/4 ^g/4b/4=d'/4f'/4)) !fermata!z | %61
!p! [Ada] z z2 ^C z !fermata!z2 ||[K:D][M:2/4][Q:1/4=116]"^Allegretto" z4 |: (A2 fd | c2 Bg/e/ | %65
 dcba) | (a3/2b/4g/4 f) (a/f/ | ee) ee | (ea/) z/ (Bf/) z/ | (A2 c>B | A2) z2 ::"_dolce" (d2 ef | %72
 B3) .c/.^d/ | .e/.f/.g/.a/ .b.b | (=d2 c)(a | ^gd'b=g | e'=gfb | d2 f>e) |1 d2 z2 :|2 d2 z (d || %80
 c)aaa | (a3/2b/4c'/4 d')(d | c)a aa | (a3/2b/4c'/4 d')d |!<(! [d=c'][dc'] [dc'][dc']!<)! | %85
!>(! (((=c'/b/^a/b/!>)! =a/g/f/e/ | =d2 f>e | d2))) z (d | c)aaa | (a3/2b/4c'/4 d')(d | c)a aa | %91
 (a3/2b/4c'/4 d')d |!<(! [^d=c']4!<)! | [eb]2 z2 |!f! [=fbd']2 z2 | z4 | %96
 z z/ (C/4D/4 E/4F/4G/4A/4B/4c/4d/4e/4 | f/4g/4a/4b/4c'/4d'/4c'/4e'/4 d'/4c'/4b/4a/4c'/4b/4a/4g/4 | %98
 f/4a/4g/4f/4e/4d/4e/4f/4 e/4g/4e/4fe/4) | !fermata!Te4- | (Pe4 | %101
 e/)(^d/4e/4f/4e/4g/4f/4"_rallent" a/4g/4f/4e/4g/4f/4e/4=d/4 | f/e/d/c/ e/d/c/B/) | %103
"_dolce"[Q:1/4=92]"^Andante" (A2 fd | c2 Bg/e/ | dcba) | (a3/2b/4g/4 f) (a/!f!f/ | %107
 d')[dad'] [dad'][dad'] | [dgb]2 z!p! (g/e/ | c)[Gc] [Gc][Gc] | [Gd]2 z2 |!f! [dfb]2 z2 | %112
 [Bdfa]2 z2 |!p! C2 z2 |!pp! (A,2 FD | C2 B,G/E/ | DC BA) | (A>FA) z |!f! (A2 fd | B3 g/e/ | %120
 c/d/e/f/ g/a/b/c'/ | d') z!ff! [Acea] z | [Adf] z [EGAc] z | [DFAd]2 z2 |] %124
V:2
 (3(D,,F,,A,, D,6) | (3(D,,F,,A,, D,6) | (3(D,,G,,B,, D,6) | (3(D,,G,,B,, D,6) | %4
 (3(C,,^F,,A,, C,6) | (3(C,,^F,,A,, C,6) | (3(B,,D,(G, G,2)) (3(A,,C,(=F, F,2)) | %7
 (3(G,,B,,(_E, E,2)) (3(^G,,B,,(F, F,2)) | (3(((A,,^C,=E, A,2))) z4 | z8 | A,,,4 !fermata!z4 || %11
 z [FA][FA][FA] z [FA][FA][FA] | z [GA][GA][GA] z [GA][GA][GA] | z [EA][EA][EA] z [EA][EA][EA] | %14
 z [FA][FA][FA] z [FA][FA][FA] | z2[K:bass] [F,A,D]2 [E,G,^C] z z2 | z2 d2 ^c2 z z/ d/ | %17
 [Ed] z [A^c] z [Dd] z [^G=B] z | A2 z2 z4 | z4 z2[K:bass] [A,,A,]2 | %20
 [^G,,^G,]2 [=G,,=G,]2 [^F,,^F,]2 [=F,,=F,]2 | [E,,E,]6 z2 | z [=D=F][DF][DF] [DF][DF][DF][DF] | %23
 z [CE][CE][CE] [CE][CE][CE][CE] | z [^G,E][G,E][G,E] [G,E][G,E][G,E][G,E] | %25
 [A,E][A,C][=B,D][^CE] [DF][E^G][^FA][G=B] | A[A,=C][=B,D][^CE] [D=F][E^G][^FA][G=B] | %27
 !fermata!z8 | z [CE][CE][CE] z [CE][CE][CE] | z [DE][DE][DE] z [DE][DE][DE] | %30
 z [=B,D][B,D][B,D] z [B,D][B,D][B,D] | z [B,E][B,E][B,E] z [B,C][B,C][B,C] | %32
 z [B,C][B,C][B,C] [^C,E,G,]2 z2 | z8 | z2 z A,/=C/ B,/A,/G,/F,/ E,/D,/^C,/E,/ | %35
 A,,/C,/B,,/A,,/ G,,/=C,,/_E,,/^F,,/ A,,/=C,/E,/^F,/ A,/ z z/ | !fermata!z8 | z4 z2 [G,,G,]2 | %38
 [^F,,^F,]2 [=F,,=F,]2 [=E,,=E,]2 [_E,,_E,]2 | [D,,D,]6 z2 | %40
 z [=G,_D][G,D][G,D] [G,D][G,D][G,D][G,D] | z [B,D][B,D][B,D] [B,D][B,D][B,D][B,D] | %42
 z [^F,D][F,D][F,D] [F,D][F,D][F,D][F,D] | [G,D][G,B,][A,C][=B,D] [C_E][D^F][=EG][FA] | %44
 G[G,A,][A,C][B,D] [CG][B,_D][A,C][C_E] | =D D2 ^G, =G,[G,B,] !fermata![G,B,]2 | z8 | %47
 z/4 z/4 z/ z z2 z4 | A,/^G,/=B,/A,/ C/B,/A,/=G,/ F,/E,/D,/^C,/ =B,,/A,,/G,,/^G,,/ | %49
 B,,/A,,/D,/=B,,/ A,,/G,,/F,,/E,,/ D,, z2 A,,- | %50
 A,,A,,/=B,,/4_B,,/4 ^C,/4=C,/4D,/4_E,/4=E,/4F,/4^F,/4G,/4 ^G,/4A,/4B,/4=B,/4 z3 | z8[K:treble] | %52
 z [FA][FA][FA] z [FA][FA][FA] | z [GA][GA][GA] z [GA][GA][GA] | z [EA][EA][EA] z [EA][EA][EA] | %55
 z [FA][FA][FA] z [FA][FA][FA] | ([F,A,D]2 [E,G,C]) z z4 | z2 [Fd]2 [Gc]2 z z/ [Fd]/ | %58
 [Ed]2 z2 [A^c]2 z2 | [Bd]2 z2[K:bass] (((([G,B,_E]4 | [G,B,E]2)))) z (^G,,/4=B,,/4D,/4F,/4) z4 | %61
 [A,F] z z2 [C,,A,,E,=G,] z !fermata!z2 ||[K:D][M:2/4] z4 |: [F,,A,,]4 | ((([G,,B,,]4 | %65
 [F,,G,,B,,]4))) | [F,,A,,]3 z | [B,,F,][B,,F,] [B,,F,][B,,F,] | [C,E,] z [A,,C,] z | (C2 D2) | %70
 [A,C]2 z2 :: z ([F,A,][E,=G,][D,F,]) | (D^D E2) | z2 z =F | (F2 E) z | [B,D]4 | (C2 D2) | %77
({F} F2 G2) |1 [B,D]2 z2 :|2"_legato\n" F/A/F/A/ F/A/F/A/ || G/A/c/A/ G/A/c/A/ | %81
 F/A/d/A/ F/A/F/A/ | G/A/c/A/ G/A/c/A/ | F/A/d/A/ F/A/F/A/ | F/A/F/A/ F/A/F/A/ | G2 z2 | F2 G2 | %87
"_legato\n" D/A/F/A/ F/A/F/A/ | G/A/c/A/ G/A/c/A/ | G/A/d/A/ G/A/A/A/ | F/A/c/A/ G/A/c/A/ | %91
 F/A/d/A/ F/A/F/A/ | F/A/F/A/ F/A/F/A/ | G2 z2 | [^G,^G]2 z2 | (!fermata![A,,D,F,A,]4 | %96
 (A,/4)B,/4A,/4G,/4A,/4B,/4) z/4 z/4 z2 | z4 | z4 | z4 | z4 | z4 | z4 | [A,,C,]4 | (([F,,B,,]4 | %105
 [F,,G,,B,,]4)) | [F,,A,,]3 z | [F,,F,][F,,F,] [F,,F,][F,,F,] | [G,,G,]2 z2 | %109
 [A,E][A,E] [A,E][A,E] | [B,D]2 z2 | [G,,G,]2 z2 | [A,,A,]2 z2 | [E,G,]2 z2 | [D,F,]4 | [D,G,]4 | %116
 [D,E,G,]4 | [D,F,]3 z | [F,,D,]4 | [G,,G,]4 | [A,,E,G,]4 | [D,F,] z [A,,A,] z | %122
 [D,A,] z [A,,A,] z | [D,,D,]2 z2 |] %124
V:3
 (D,,2 D,,6) | (D,,2 D,,6) | (D,,2 D,,6) | (D,,2 D,,6) | (C,,2 C,,6) | (C,,2 C,,6) | B,,4 A,,4 | %7
 G,,4 =G,,4 | x8 | x8 | x8 || D4 D4 | E4 E4 | ^C4 C4 | D4 D4 | x2[K:bass] x6 | x2 F2 G2 z z/ F/ | %17
 x8 | x8 | x6[K:bass] x2 | x8 | x8 | x8 | x8 | x8 | x8 | x8 | x8 | A,4 A,4 | =B,4 _B,4 | ^G,4 G,4 | %31
 =G,4 G,4 | E,4 x4 | x8 | x8 | x8 | x8 | x8 | x8 | x8 | x8 | x8 | x8 | x8 | x8 | %45
 B,^F,G,=F, E,D, ^C,2 | x8 | x8 | x8 | x5 A,,,3- | A,,, x7 | x4[K:treble] x4 | D4 D4 | E4 E4 | %54
 ^C4 C4 | D4 D4 | x8 | x8 | x8 | x4[K:bass] x4 | x8 | x8 ||[K:D][M:2/4] x4 |: x4 | x4 | x4 | x4 | %67
 x4 | x4 | C,4 | x4 :: x4 | G,4 | x3 G, | A,3 z | x4 | (A,A, B,G,) | A,4 |1 x4 :|2 x4 || x4 | x4 | %82
 x4 | x4 | x4 | x4 | x4 | x4 | x4 | x4 | x4 | x4 | x4 | x4 | x4 | x4 | x4 | x4 | x4 | x4 | x4 | %101
 x4 | x4 | x4 | x4 | x4 | x4 | x4 | x4 | x4 | x4 | x4 | x4 | x4 | x4 | x4 | x4 | x4 | x4 | x4 | %120
 x4 | x4 | x4 | x4 |] %124
V:4
 x8 | x8 | x8 | x8 | x8 | x8 | x8 | x8 | x8 | x8 | x8 || x8 | x8 | x8 | x8 | (A4 B) z z2 | x8 | %17
 x8 | x8 | x8 | x8 | (^D4 E2) z2 | x8 | x8 | x8 | x8 | x8 | x8 | x8 | x8 | x8 | x8 | x8 | x8 | x8 | %35
 x8 | x8 | x8 | x8 | (^C4 D2) z2 | x8 | x8 | x8 | x8 | x8 | x8 | x8 | x8 | x8 | x8 | x8 | x8 | x8 | %53
 x8 | x8 | x8 | x8 | x8 | x8 | x8 | x8 | x8 ||[K:D][M:2/4] x4 |: x4 | x4 | z c3 | B3 z | x4 | x4 | %69
 z2 (G2 | A2) z2 :: x4 | x4 | x4 | x4 | x4 | x4 | (d2 c2) |1 d2 z2 :|2 x4 || x4 | x4 | x4 | x4 | %84
 x4 | (e2 z2 | z2 c2 | d2) z2 | x4 | x4 | x4 | x4 | x4 | x4 | x4 | x4 | x4 | x4 | x4 | x4 | x4 | %101
 x4 | x4 | x4 | x4 | z c3 | d2 z z | x4 | x4 | x4 | x4 | x4 | x4 | x4 | x4 | x4 | x4 | x4 | x4 | %119
 x4 | x4 | x4 | x4 | x4 |] %124

